Numix-GalliumOS/24/categories/gnome-applications.svg

<?xml version="1.0" encoding="UTF-8" standalone="no"?>
<svg
   xmlns:dc="http://purl.org/dc/elements/1.1/"
   xmlns:cc="http://creativecommons.org/ns#"
   xmlns:rdf="http://www.w3.org/1999/02/22-rdf-syntax-ns#"
   xmlns:svg="http://www.w3.org/2000/svg"
   xmlns="http://www.w3.org/2000/svg"
   xmlns:sodipodi="http://sodipodi.sourceforge.net/DTD/sodipodi-0.dtd"
   xmlns:inkscape="http://www.inkscape.org/namespaces/inkscape"
   width="24"
   height="24"
   viewBox="0 0 24 24"
   id="svg2"
   version="1.1"
   inkscape:version="0.91 r"
   sodipodi:docname="gnome-applications.svg">
  <metadata
     id="metadata20">
    <rdf:RDF>
      <cc:Work
         rdf:about="">
        <dc:format>image/svg+xml</dc:format>
        <dc:type
           rdf:resource="http://purl.org/dc/dcmitype/StillImage" />
        <dc:title />
      </cc:Work>
    </rdf:RDF>
  </metadata>
  <defs
     id="defs18" />
  <sodipodi:namedview
     pagecolor="#ffffff"
     bordercolor="#666666"
     borderopacity="1"
     objecttolerance="10"
     gridtolerance="10"
     guidetolerance="10"
     inkscape:pageopacity="0"
     inkscape:pageshadow="2"
     inkscape:window-width="961"
     inkscape:window-height="480"
     id="namedview16"
     showgrid="false"
     inkscape:zoom="10.727273"
     inkscape:cx="11"
     inkscape:cy="11"
     inkscape:window-x="10"
     inkscape:window-y="34"
     inkscape:window-maximized="0"
     inkscape:current-layer="svg2" />
  <g
     style="fill:#6f8bc0"
     id="g4"
     transform="translate(1.1149841,1.1132815)">
    <path
       d="m 16.386719,2.382812 c -3.566407,0 -4.234375,5.039063 -2.226563,5.039063 2.003906,0 5.792969,-5.039063 2.226563,-5.039063 z"
       id="path6"
       inkscape:connector-curvature="0" />
    <path
       d="M 10.46875,6.796875 C 11.535156,6.863281 12.707031,2.753906 10.699219,3.011719 8.691406,3.269531 9.398438,6.730469 10.46875,6.796875 Z"
       id="path8"
       inkscape:connector-curvature="0" />
    <path
       d="M 5.570312,9.351562 C 6.332031,9.019531 5.667969,5.773438 4.378906,6.65625 3.085938,7.542969 4.8125,9.679688 5.570312,9.351562 Z"
       id="path10"
       inkscape:connector-curvature="0" />
    <path
       d="M 7.710938,7.652344 C 8.617188,7.46875 8.664062,3.785156 7.054688,4.445312 5.441406,5.109375 6.808594,7.835938 7.710938,7.652344 Z"
       id="path12"
       inkscape:connector-curvature="0" />
    <path
       d="M 12.433594,15.886719 C 12.59375,17.105469 11.535156,17.703125 10.5,16.921875 7.195312,14.425781 15.96875,13.179688 15.386719,9.769531 14.910156,6.941406 6.160156,7.8125 5.164062,12.242188 c -0.675781,2.992187 2.773438,7.148437 6.375,7.148437 1.773438,0 3.816407,-1.585937 4.195313,-3.597656 0.292969,-1.53125 -3.433594,-0.917969 -3.300781,0.09375 z"
       id="path14"
       inkscape:connector-curvature="0" />
  </g>
</svg>

<svg xmlns="http://www.w3.org/2000/svg" viewBox="0 0 24 24">
 <g transform="translate(1.1149841,1.1132815)" style="fill:#6f8bc0">
  <path d="m 16.387 2.383 c -3.566 0 -4.234 5.04 -2.227 5.04 2 0 5.793 -5.04 2.227 -5.04 z"/>
  <path d="m 10.469 6.797 c 1.066 0.066 2.238 -4.04 0.23 -3.785 -2.01 0.258 -1.301 3.719 -0.23 3.785"/>
  <path d="m 5.57 9.352 c 0.762 -0.332 0.098 -3.578 -1.191 -2.695 -1.293 0.887 0.434 3.02 1.191 2.695"/>
  <path d="m 7.711 7.652 c 0.906 -0.184 0.953 -3.867 -0.656 -3.207 -1.613 0.664 -0.246 3.391 0.656 3.207"/>
  <path d="m 12.434 15.887 c 0.16 1.219 -0.898 1.816 -1.934 1.035 -3.305 -2.496 5.469 -3.742 4.887 -7.152 -0.477 -2.828 -9.227 -1.957 -10.223 2.473 c -0.676 2.992 2.773 7.148 6.375 7.148 1.773 0 3.816 -1.586 4.195 -3.598 0.293 -1.531 -3.434 -0.918 -3.301 0.094 z"/>
 </g>
</svg>
